X:1
T:Title
%%score { ( 1 4 ) | ( 2 3 5 ) }
L:1/8
Q:1/4=135
M:6/4
K:Db
V:1 treble nm="Grand Piano"
V:4 treble 
V:2 bass 
V:3 bass 
V:5 bass 
V:1
 [FA]2 d2 c2 c2 B2 A2 | [FA]2 G2 F2 .G6 | [EG]2 c2 B2 B2 A2 G2 | [EG]2 F2 E2 .F6 | %4
w: E.~S.~Lorenz * * * * *||||
 [Fd]2 d2 d2 [=Ad]2 c2 A2 | [DB]2 B2 B2 .[FA]6 | [FA]2 A2 [_CA]2 [B,A]2 G2 G2 | [EG]2 F2 E2 .F6 | %8
w: ||||
 z6 E6 | z6 .F6[K:bass] | z4 G2 .[CG]6[K:bass] | C2 D2 E2 .D6 |] %12
w: ||||
V:2
 z2[K:treble] F2 A2 A2 G2 F2 | z2 E2 B,2 .E6 | z2[K:treble] E2 G2 G2 F2 E2 | z2 D2 A,2 .D6 | %4
 z2[K:treble] B2 B2[K:bass] z2[K:treble] =A2 FE | z2 E2 _F2 .D,,6 | z2 D2 =D,2 z2 B,2 E2 | %7
 z2 D2 C2 .[D,A,D]6 | [A,D]2 [B,D]2 [A,D]2 B,2 D,2 D,2 | [B,D]2 [CE]2 [B,D]2 .[A,D]6 | %10
 [G,B,]2 [F,B,=D]2 .[E,B,E]2 .[A,,A,]4 [A,,F,][A,,F,A,] | %11
 [A,,E,A,]2 [A,,F,A,]2 [A,,G,A,]2 .[D,F,A,]6 |] %12
V:3
 D,,12[K:treble] | G,,12 | A,,12[K:treble] | D,,12 | B,,6[K:treble][K:bass] F,,6[K:treble] | %5
 G,,6 z6 | .D,6 E,6 | A,,6 z6 | z6 G,6 | .D,12 | x12 | x12 |] %12
V:4
 x12 | x12 | x12 | x12 | x12 | x12 | x12 | x12 | F2 G2 F2 z2 C2 A,2 | G2 A2 G2 z2[K:bass] F,2 D,2 | %10
 E2 .F3 D z2[K:bass] E,2 A,B, | x12 |] %12
V:5
 x2[K:treble] x10 | x12 | x2[K:treble] x10 | x12 | x2[K:treble] x4[K:bass] x2[K:treble] x4 | x12 | %6
 x12 | x12 | .D,12 | x12 | x12 | x12 |] %12

